X:92
T:Reels simple chords 43
M:3/4
L:1/8
K:D
[F2D,2F,2A,2] F2 A2 | F2 [G2A,2C2E2G2] BG | E2 E2 [F2D,2F,2A,2] | D2 C2 D2 | [EA,CEG]F GE A4 |
[F2B,2D2F2] F2 | A2 F2 [G2E,2G,2B,2] | BG E2 E2 | [F2D,2F,2A,2] D2 E2 |
C2 [D4D,4F,4A,4] | D4 [F2D,2F,2A,2] | F2 A2 F2 | [G2A,2C2E2G2] BG E2 |
E2 [F2D,2F,2A,2] D2 | C2 D2 [EA,CEG]F | GE A4 | [F2B,2D2F2] F2 A2 |
F2 [G2E,2G,2B,2] BG | E2 E2 [F2D,2F,2A,2] | D2 E2 C2 | [D4D,4F,4A,4] D4 |
[d2D,2F,2A,2] d2 | A2 B2 [c2A,2C2E2G2] | B2 A4 | [d2D,2F,2A,2] d2 A2 |
B2 [c2A,2C2E2] dc | B2 AG [F2D,2F,2A,2] | F2 A2 F2 | [G2E,2G,2B,2] BG E2 |
E2 [F2D,2F,2A,2] D2 | E2 C2 [D4D,4F,4A,4] | D4 | [d2D,2F,2A,2] d2 A2 |
B2 [c2A,2C2E2G2] B2 | A4 [d2D,2F,2A,2] | d2 A2 B2 | [c2A,2C2E2] dc B2 |
AG [F2D,2F,2A,2] F2 | A2 F2 [G2E,2G,2B,2] | BG E2 E2 | [F2D,2F,2A,2] D2 E2 |
C2 [D2D,2F,2A,2] FA | d4 |


